X:2
T:La Chanson Des Sept Pays
M:C
L:1/8
N:Assez anim
N:La Bourre 4th edition 1929, page 16
C:J. Canteloube
Z:Steve Mansfield www.lesession.co.uk April 2012
K:G
!f!D2 "refr."|:B > A G3A B > c | (B>A) G3G c > B |
A6D2 | B > A G3A B e | (d3 c/B/) A4 |
G2 A > B G4 | A2 B > c A2 D2 | B2 A > B G G A > B |
c4 !crescendo(!B2 c d | e3!crescendo)! e f2 e2 | d4!diminuendo(! G2 c!diminuendo)! B | A8 |
!fermata! G6 !fine!|| G > G "couplet" | [K:C] c4 G G A > d | c4 G2 z F |
E E F G G3 G | A A G F A4 | B2 B B A G A B |
c2 e2 d3 c | B4 !fermata! A2 D > D | A3 c B2 A G |
A4 c2 B A | G E !crescendo(!F G A B c > d!crescendo)! | (ed/c/) !diminuendo(!B4 A!diminuendo)! > A |
d3c A2 G > A | c4 A2 !crescendo(!B > c!crescendo)! |d4 !fermata! d2 D2 !D.C.! :|

